X: 1
T: the Sailor's Wife
O: Niel Gow
R: jig
B: BSFC Session Tune Book 2016 p.53
B: RSCDS 18-6
Z: Anselm Lingnau <anselm@strathspey.org>
M: 6/8
L: 1/8
K: Dm
"^A"|:\
"Dm"DEF E2D | "Dm"d2e f2g | "(F)"agf edc | "C"AcA "C7"GEC |\
"Dm"DEF E2D | "Dm"d2e f2g | "(F)"agf "A7"ed^c |1 "D"d3 d3 :|2 "D"d3 d2 ||
"^B"|: e |\
"F"fga fga | "F"fga agf | "C"ecg ecg | ecg gfe |\
"Dm"fga agf | "C"efg gfe | "Dm"def "A7"ed^c | "D"d3 d2 |]
